_includes/icons/ios-unlike.svg

<svg fill="#666" height="50" viewBox="0 0 50 50" width="50" xmlns="http://www.w3.org/2000/svg"><path d="m25 2c-12.645455 0-23 10.354545-23 23s10.354545 23 23 23 23-10.354545 23-23-10.354545-23-23-23zm0 2c11.554545 0 21 9.445455 21 21s-9.445455 21-21 21-21-9.445455-21-21 9.445455-21 21-21zm2.152344 7.998047c-5.750565.000505-8.455696.518597-10.289063 1.041015-1.833366.522421-2.560421.960938-4.863281.960938v2c2.57614 0 3.733273-.561233 5.410156-1.039062 1.676884-.477832 4.108752-.962396 9.742188-.962891 4.210798 0 6.201731.559654 6.949218 1.009765.373745.225057.446556.373338.492188.490235.04563.116896.050781.239829.050781.482422 0 .630485-.341797 1.117187-.341797 1.117187a1.0001 1.0001 0 0 0 .44336 1.535156s.335651.130847.675781.40625c.340131.275404.578125.583702.578125 1.007813 0 .908396-.796875 1.142578-.796875 1.142578a1.0001 1.0001 0 0 0 -.095703 1.830078s.892578.456839.892578 1.365235c0 .958923-.943359 1.21875-.943359 1.21875a1.0001 1.0001 0 0 0 -.671875 1.101562s.169921 1.188038.169922 1.744141c0 .108938.01068.135863-.201172.269531-.211851.133668-.673152.28125-1.353516.28125h-5.222656c-1.123667 0-2.165518.152291-2.970703.833984-.402593.340847-.709604.857927-.785157 1.421875-.07555.563949.052 1.133836.308594 1.703125a1.0001 1.0001 0 0 0 .009766.021485c.482315 1.008301.997167 2.229044 1.24414 3.365234.246974 1.13619.207096 2.124597-.191406 2.798828a1.0001 1.0001 0 0 0 -.007812.011719c-.194848.340916-.813317.781299-1.105469.833984-.146076.02634-.141943.00476-.140625.00586.001297.000997-.099196-.0724-.146484-.462891-.298615-3.065624-1.649355-5.029808-3.115235-6.384765-1.469297-1.358119-2.983728-2.209449-3.800781-3.173829 0 0-.001953-.001953-.001953-.001953-.775799-.940926-1.378896-2.052252-2.070313-3.023437-.346629-.486886-.718846-.944928-1.203125-1.314453-.484279-.369526-1.114757-.634766-1.800781-.634766v2c.217476 0 .36292.05295.587891.224609.224971.171663.496738.476902.787109.884766.580742.815728 1.225853 2.011015 2.164062 3.146484a1.0001 1.0001 0 0 0 .007813.007813c1.171269 1.383959 2.728317 2.205137 3.970703 3.353516 1.242387 1.148376 2.237693 2.519731 2.486328 5.130859a1.0001 1.0001 0 0 0 .003906.023437c.08835.736494.372792 1.388358.896485 1.798828.523693.410472 1.187545.48658 1.730469.388672 1.082982-.195298 1.951897-.884278 2.480468-1.804687.772022-1.312124.72559-2.835198.421875-4.232422-.302566-1.391946-.875218-2.718507-1.384765-3.785156-.15041-.333711-.159573-.53212-.148438-.615235.01113-.08311.012553-.09171.095703-.162109.166303-.140796.801401-.359375 1.677735-.359375h5.222656c.945636 0 1.76127-.174261 2.419922-.589844.658652-.415582 1.134765-1.166875 1.134766-1.960937 0-.603995-.07383-.985075-.13086-1.390625.683382-.401578 1.576172-1.108634 1.576172-2.673828 0-.992591-.431348-1.710295-.886719-2.226563.459833-.48352.886719-1.14969.886719-2.111328 0-1.201889-.709989-2.06795-1.318359-2.560547-.163568-.132441-.175863-.100265-.328125-.195312.139015-.376356.291015-.777286.291015-1.310547 0-.209407.01821-.683959-.1875-1.210938-.205712-.526978-.647587-1.067165-1.324219-1.474609-1.353261-.814888-3.608266-1.296875-7.980468-1.296875z"/></svg>

<svg xmlns="http://www.w3.org/2000/svg" viewBox="0 0 50 50" width="50" height="50" fill="#666"><path style="line-height:normal;text-indent:0;text-align:start;text-decoration-line:none;text-decoration-style:solid;text-decoration-color:#000;text-transform:none;block-progression:tb;isolation:auto;mix-blend-mode:normal" d="M 25 2 C 12.354545 2 2 12.354545 2 25 C 2 37.645455 12.354545 48 25 48 C 37.645455 48 48 37.645455 48 25 C 48 12.354545 37.645455 2 25 2 z M 25 4 C 36.554545 4 46 13.445455 46 25 C 46 36.554545 36.554545 46 25 46 C 13.445455 46 4 36.554545 4 25 C 4 13.445455 13.445455 4 25 4 z M 27.152344 11.998047 C 21.401779 11.998552 18.696648 12.516644 16.863281 13.039062 C 15.029915 13.561483 14.30286 14 12 14 L 12 16 C 14.57614 16 15.733273 15.438767 17.410156 14.960938 C 19.08704 14.483106 21.518908 13.998542 27.152344 13.998047 C 31.363142 13.998047 33.354075 14.557701 34.101562 15.007812 C 34.475307 15.232869 34.548118 15.38115 34.59375 15.498047 C 34.63938 15.614943 34.644531 15.737876 34.644531 15.980469 C 34.644531 16.610954 34.302734 17.097656 34.302734 17.097656 A 1.0001 1.0001 0 0 0 34.746094 18.632812 C 34.746094 18.632812 35.081745 18.763659 35.421875 19.039062 C 35.762006 19.314466 36 19.622764 36 20.046875 C 36 20.955271 35.203125 21.189453 35.203125 21.189453 A 1.0001 1.0001 0 0 0 35.107422 23.019531 C 35.107422 23.019531 36 23.47637 36 24.384766 C 36 25.343689 35.056641 25.603516 35.056641 25.603516 A 1.0001 1.0001 0 0 0 34.384766 26.705078 C 34.384766 26.705078 34.554687 27.893116 34.554688 28.449219 C 34.554688 28.558157 34.565368 28.585082 34.353516 28.71875 C 34.141665 28.852418 33.680364 29 33 29 L 27.777344 29 C 26.653677 29 25.611826 29.152291 24.806641 29.833984 C 24.404048 30.174831 24.097037 30.691911 24.021484 31.255859 C 23.945934 31.819808 24.073484 32.389695 24.330078 32.958984 A 1.0001 1.0001 0 0 0 24.339844 32.980469 C 24.822159 33.98877 25.337011 35.209513 25.583984 36.345703 C 25.830958 37.481893 25.79108 38.4703 25.392578 39.144531 A 1.0001 1.0001 0 0 0 25.384766 39.15625 C 25.189918 39.497166 24.571449 39.937549 24.279297 39.990234 C 24.133221 40.016574 24.137354 39.994994 24.138672 39.996094 C 24.139969 39.997091 24.039476 39.923694 23.992188 39.533203 C 23.693573 36.467579 22.342833 34.503395 20.876953 33.148438 C 19.407656 31.790319 17.893225 30.938989 17.076172 29.974609 C 17.076172 29.974609 17.074219 29.972656 17.074219 29.972656 C 16.29842 29.03173 15.695323 27.920404 15.003906 26.949219 C 14.657277 26.462333 14.28506 26.004291 13.800781 25.634766 C 13.316502 25.26524 12.686024 25 12 25 L 12 27 C 12.217476 27 12.36292 27.05295 12.587891 27.224609 C 12.812862 27.396272 13.084629 27.701511 13.375 28.109375 C 13.955742 28.925103 14.600853 30.12039 15.539062 31.255859 A 1.0001 1.0001 0 0 0 15.546875 31.263672 C 16.718144 32.647631 18.275192 33.468809 19.517578 34.617188 C 20.759965 35.765564 21.755271 37.136919 22.003906 39.748047 A 1.0001 1.0001 0 0 0 22.007812 39.771484 C 22.096162 40.507978 22.380604 41.159842 22.904297 41.570312 C 23.42799 41.980784 24.091842 42.056892 24.634766 41.958984 C 25.717748 41.763686 26.586663 41.074706 27.115234 40.154297 C 27.887256 38.842173 27.840824 37.319099 27.537109 35.921875 C 27.234543 34.529929 26.661891 33.203368 26.152344 32.136719 C 26.001934 31.803008 25.992771 31.604599 26.003906 31.521484 C 26.015036 31.438374 26.016459 31.429774 26.099609 31.359375 C 26.265912 31.218579 26.90101 31 27.777344 31 L 33 31 C 33.945636 31 34.76127 30.825739 35.419922 30.410156 C 36.078574 29.994574 36.554687 29.243281 36.554688 28.449219 C 36.554688 27.845224 36.480858 27.464144 36.423828 27.058594 C 37.10721 26.657016 38 25.94996 38 24.384766 C 38 23.392175 37.568652 22.674471 37.113281 22.158203 C 37.573114 21.674683 38 21.008513 38 20.046875 C 38 18.844986 37.290011 17.978925 36.681641 17.486328 C 36.518073 17.353887 36.505778 17.386063 36.353516 17.291016 C 36.492531 16.91466 36.644531 16.51373 36.644531 15.980469 C 36.644531 15.771062 36.662741 15.29651 36.457031 14.769531 C 36.251319 14.242553 35.809444 13.702366 35.132812 13.294922 C 33.779551 12.480034 31.524546 11.998047 27.152344 11.998047 z"/></svg>
